icons/bell-slash-24.svg

<svg xmlns="http://www.w3.org/2000/svg" width="24" height="24" viewBox="0 0 24 24"><path fill-rule="evenodd" d="M1.22 1.22a.75.75 0 011.06 0l20.5 20.5a.75.75 0 11-1.06 1.06L17.94 19H15.5a3.5 3.5 0 11-7 0H3.518a1.518 1.518 0 01-1.263-2.36l2.2-3.298A3.25 3.25 0 005 11.539V7c0-.294.025-.583.073-.866L1.22 2.28a.75.75 0 010-1.06zM10 19a2 2 0 104 0h-4zM6.5 7.56l9.94 9.94H3.517l-.007-.001-.006-.004-.004-.006-.001-.007.003-.01 2.2-3.298a4.75 4.75 0 00.797-2.635V7.56z"/><path d="M12 2.5c-1.463 0-2.8.485-3.788 1.257l-.04.032a.75.75 0 11-.935-1.173l.05-.04C8.548 1.59 10.212 1 12 1c3.681 0 7 2.565 7 6v4.539c0 .642.19 1.269.546 1.803l1.328 1.992a.75.75 0 11-1.248.832l-1.328-1.992a4.75 4.75 0 01-.798-2.635V7c0-2.364-2.383-4.5-5.5-4.5z"/></svg>

<svg xmlns="http://www.w3.org/2000/svg" width="24" height="24" viewBox="0 0 24 24">
  <defs/>
  <path d="M1.22,1.22 C1.513,0.928 1.987,0.928 2.28,1.22 L22.78,21.72 C22.981,21.907 23.063,22.189 22.995,22.454 C22.928,22.72 22.72,22.928 22.454,22.995 C22.189,23.063 21.907,22.981 21.72,22.78 L17.94,19 L15.5,19 C15.5,20.933 13.933,22.5 12,22.5 C10.067,22.5 8.5,20.933 8.5,19 L3.518,19 C2.958,19 2.444,18.692 2.18,18.198 C1.916,17.705 1.944,17.106 2.255,16.64 L4.455,13.342 C4.811,12.808 5,12.181 5,11.539 L5,7 C5,6.706 5.025,6.417 5.073,6.134 L1.22,2.28 C0.928,1.987 0.928,1.513 1.22,1.22 Z M6.5,7.56 L6.499,7.56 L6.499,11.539 C6.499,12.477 6.222,13.394 5.702,14.174 L3.502,17.472 L3.499,17.482 L3.5,17.489 L3.504,17.495 L3.51,17.499 L3.517,17.5 L16.44,17.5 Z M10,19 C10,20.105 10.895,21 12,21 C13.105,21 14,20.105 14,19 Z"/>
  <path d="M12,2.5 C10.537,2.5 9.2,2.985 8.212,3.757 L8.172,3.789 A0.75 0.75 0 1 1 7.237,2.616 L7.287,2.576 C8.548,1.59 10.212,1 12,1 C15.681,1 19,3.565 19,7 L19,11.539 C19,12.181 19.19,12.808 19.546,13.342 L20.874,15.334 A0.75 0.75 0 1 1 19.626,16.166 L18.298,14.174 A4.75 4.75 0 0 1 17.5,11.539 L17.5,7 C17.5,4.636 15.117,2.5 12,2.5 Z"/>
</svg>
